**kern	**kern	**dynam
*part1	*part1	*part1
*staff2	*staff1	*
*I"Piano	*	*
*clefF4	*clefG2	*
*k[b-e-a-]	*k[b-e-a-]	*
=1	=1	=1
4r	4r	.
4G	4e- 4b-	mf
=	=	=
2G	4d 4bn	<
.	4f 4b	.
=	=	=
2G	4.f 4.bn 4.ee-	.
.	8f 8b 8dd	.
=	=	=
2A-	2e- 2cc	[
=	=	=
4A-	4c-X 4f-X 4cc-X	.
4AA-	4A- 4c- 4f-	.
=	=	=
*	*^	*
4AAn	4.e-	4G-X 4cn	.
4BB-	.	4Gn 4B-	.
.	8en	.	.
*	*v	*v	*
=	=	=
4D	4A- 4B- 4f	.
4BB-	4A- 4B- 4d 4f#X	< <
=	=	=
*-	*-	*-
!!!system-decoration: {(s1,s2)}
